X:22
T: Jegenyefa kihajlott
O: Kistelek (Csongrád), Özv. Mucsi Istvánné - Virág Julianna (83), 1952.05
M:4/4
L:1/4
Q: "Tempo guisto" 1/4=84
K:D
F/F/^E/F/ G/F/=E/D/ | C<B, B, z |
B<B A<d | A/F/G/E/ | F<F F z | 
B<B A<d | A/F/G/E/ | F<F B, z | 
F/F/^E/F/ G/F/=E/D/ | C<B, B, z |

